packages/kaspersky-hexa-ui-icons/src/iconsSVGs/24/StatusDiamondSolid.svg

<svg width="24" height="24" viewBox="0 0 24 24" fill="none" xmlns="http://www.w3.org/2000/svg">
<path fill-rule="evenodd" clip-rule="evenodd" d="M12 22C17.5228 22 22 17.5228 22 12C22 6.47715 17.5228 2 12 2C6.47715 2 2 6.47715 2 12C2 17.5228 6.47715 22 12 22ZM7.04675 9.34393L8.88009 7.14393C8.95609 7.05273 9.06866 7 9.18738 7H14.8127C14.9314 7 15.044 7.05273 15.12 7.14393L16.9533 9.34393C17.1704 9.60446 16.9851 10 16.646 10H7.35404C7.01491 10 6.82965 9.60446 7.04675 9.34393ZM7.28939 11H16.7107C17.0383 11 17.227 11.3723 17.0332 11.6365L12.3226 18.0601C12.1628 18.2781 11.8373 18.2781 11.6775 18.0601L6.96683 11.6365C6.77307 11.3723 6.96175 11 7.28939 11Z" fill="black"/>
</svg>

<svg xmlns="http://www.w3.org/2000/svg" width="24" height="24" fill="none" viewBox="0 0 24 24"><path fill="#000" fill-rule="evenodd" d="M12 22c5.5228 0 10-4.4772 10-10S17.5228 2 12 2 2 6.4772 2 12s4.4772 10 10 10M7.0468 9.344l1.8333-2.2A.4.4 0 0 1 9.1874 7h5.6253a.4.4 0 0 1 .3073.144l1.8333 2.2c.2171.2605.0318.656-.3073.656H7.354c-.339 0-.5244-.3955-.3072-.656M7.2894 11h9.4213c.3276 0 .5163.3723.3225.6365l-4.7106 6.4236c-.1598.218-.4853.218-.6451 0l-4.7107-6.4236c-.1937-.2642-.005-.6365.3226-.6365"/></svg>
